X: 8205
T: Coolinarne
R: jig
M: 6/8
K: Gmajor
G2A Bc/d/G|Bc/d/e g3|edB dB/c/d|edB AGE|
G2A Bc/d/G|Bc/d/e g3|edB dBA|AGF G3:|
Bdd edB|agf g2a|bag egd|Bc/d/B AGA|
Bdd edB|agf g2a|bag egd|AGF G3:|

